src/img/icons/planning.svg

<svg width="48" height="48" viewBox="0 0 48 48" fill="none" xmlns="http://www.w3.org/2000/svg">
<g clip-path="url(#clip0)">
<path d="M43.4609 24.1283H29.2324C29.0863 24.1283 28.9463 24.1863 28.843 24.2896C28.7397 24.3929 28.6816 24.533 28.6816 24.679V27.8919C28.6816 28.038 28.7397 28.1781 28.843 28.2814C28.9463 28.3847 29.0863 28.4427 29.2324 28.4427H43.4609C43.607 28.4427 43.7471 28.3847 43.8504 28.2814C43.9537 28.1781 44.0117 28.038 44.0117 27.8919V24.679C44.0117 24.533 43.9537 24.3929 43.8504 24.2896C43.7471 24.1863 43.607 24.1283 43.4609 24.1283ZM42.8184 27.3412H29.7832V25.2298H42.8184V27.3412Z" fill="#5FBE3F"/>
<path d="M31.1197 45.1865C31.5555 45.1865 31.9816 45.0572 32.344 44.8151C32.7064 44.5729 32.9888 44.2288 33.1556 43.8261C33.3224 43.4234 33.366 42.9803 33.281 42.5528C33.196 42.1254 32.9861 41.7327 32.6779 41.4245C32.3697 41.1163 31.977 40.9065 31.5495 40.8214C31.1221 40.7364 30.679 40.7801 30.2763 40.9469C29.8736 41.1137 29.5295 41.3962 29.2874 41.7586C29.0452 42.121 28.916 42.547 28.916 42.9829C28.9167 43.5671 29.1491 44.1272 29.5622 44.5403C29.9753 44.9534 30.5355 45.1858 31.1197 45.1865ZM31.1197 41.8808C31.3377 41.8808 31.5507 41.9454 31.732 42.0665C31.9132 42.1876 32.0545 42.3597 32.1379 42.5611C32.2213 42.7625 32.2431 42.9841 32.2006 43.1979C32.1581 43.4117 32.0531 43.6081 31.899 43.7622C31.7449 43.9163 31.5485 44.0213 31.3347 44.0638C31.1209 44.1063 30.8993 44.0845 30.6979 44.0011C30.4965 43.9177 30.3244 43.7764 30.2033 43.5952C30.0822 43.4139 30.0176 43.2009 30.0176 42.9829C30.0178 42.6906 30.134 42.4105 30.3407 42.2038C30.5473 41.9971 30.8275 41.8809 31.1197 41.8806V41.8808Z" fill="#5FBE3F"/>
<path d="M36.3482 45.1865C36.7841 45.1865 37.2101 45.0572 37.5725 44.8151C37.9349 44.5729 38.2174 44.2288 38.3841 43.8261C38.5509 43.4234 38.5946 42.9803 38.5095 42.5528C38.4245 42.1254 38.2146 41.7327 37.9064 41.4245C37.5982 41.1163 37.2055 40.9065 36.7781 40.8214C36.3506 40.7364 35.9075 40.7801 35.5048 40.9469C35.1022 41.1137 34.758 41.3962 34.5159 41.7586C34.2737 42.121 34.1445 42.547 34.1445 42.9829C34.1452 43.5671 34.3776 44.1272 34.7907 44.5403C35.2039 44.9534 35.764 45.1858 36.3482 45.1865ZM36.3482 41.8808C36.5662 41.8808 36.7793 41.9454 36.9605 42.0665C37.1417 42.1876 37.283 42.3597 37.3664 42.5611C37.4498 42.7625 37.4717 42.9841 37.4291 43.1979C37.3866 43.4117 37.2816 43.6081 37.1275 43.7622C36.9734 43.9163 36.777 44.0213 36.5632 44.0638C36.3494 44.1063 36.1278 44.0845 35.9264 44.0011C35.7251 43.9177 35.5529 43.7764 35.4318 43.5952C35.3107 43.4139 35.2461 43.2009 35.2461 42.9829C35.2464 42.6906 35.3626 42.4105 35.5692 42.2038C35.7758 41.9971 36.056 41.8809 36.3482 41.8806V41.8808Z" fill="#5FBE3F"/>
<path d="M41.5767 45.1865C42.0126 45.1865 42.4386 45.0572 42.801 44.8151C43.1634 44.5729 43.4459 44.2288 43.6127 43.8261C43.7794 43.4234 43.8231 42.9803 43.738 42.5528C43.653 42.1254 43.4431 41.7327 43.1349 41.4245C42.8267 41.1163 42.4341 40.9065 42.0066 40.8214C41.5791 40.7364 41.136 40.7801 40.7333 40.9469C40.3307 41.1137 39.9865 41.3962 39.7444 41.7586C39.5023 42.121 39.373 42.547 39.373 42.9829C39.3737 43.5671 39.6061 44.1272 40.0192 44.5403C40.4324 44.9534 40.9925 45.1858 41.5767 45.1865ZM41.5767 41.8808C41.7947 41.8808 42.0078 41.9454 42.189 42.0665C42.3703 42.1876 42.5115 42.3597 42.5949 42.5611C42.6783 42.7625 42.7002 42.9841 42.6577 43.1979C42.6151 43.4117 42.5102 43.6081 42.356 43.7622C42.2019 43.9163 42.0055 44.0213 41.7917 44.0638C41.5779 44.1063 41.3563 44.0845 41.155 44.0011C40.9536 43.9177 40.7814 43.7764 40.6603 43.5952C40.5392 43.4139 40.4746 43.2009 40.4746 42.9829C40.4748 42.6906 40.591 42.4104 40.7977 42.2038C41.0043 41.9971 41.2845 41.8809 41.5767 41.8806V41.8808Z" fill="#5FBE3F"/>
<path d="M31.1197 40.3236C31.5555 40.3236 31.9816 40.1943 32.344 39.9522C32.7064 39.71 32.9888 39.3659 33.1556 38.9632C33.3224 38.5605 33.3661 38.1174 33.281 37.69C33.196 37.2625 32.9861 36.8698 32.6779 36.5616C32.3697 36.2535 31.9771 36.0436 31.5496 35.9585C31.1221 35.8735 30.6791 35.9172 30.2764 36.0839C29.8737 36.2507 29.5295 36.5332 29.2874 36.8956C29.0453 37.258 28.916 37.684 28.916 38.1199C28.9167 38.7041 29.1491 39.2643 29.5622 39.6774C29.9753 40.0905 30.5354 40.3229 31.1197 40.3236ZM31.1197 37.0179C31.3377 37.0179 31.5508 37.0825 31.7321 37.2036C31.9133 37.3248 32.0546 37.4969 32.138 37.6983C32.2214 37.8998 32.2432 38.1214 32.2006 38.3352C32.158 38.549 32.053 38.7454 31.8988 38.8995C31.7446 39.0536 31.5482 39.1585 31.3344 39.201C31.1205 39.2434 30.8989 39.2215 30.6976 39.138C30.4962 39.0545 30.3241 38.9132 30.2031 38.7319C30.082 38.5506 30.0175 38.3374 30.0176 38.1194C30.018 37.8273 30.1343 37.5473 30.3409 37.3408C30.5475 37.1343 30.8276 37.0182 31.1197 37.0179Z" fill="#5FBE3F"/>
<path d="M36.3482 40.3236C36.7841 40.3236 37.2101 40.1943 37.5725 39.9522C37.9349 39.71 38.2174 39.3659 38.3841 38.9632C38.5509 38.5605 38.5946 38.1174 38.5095 37.69C38.4245 37.2625 38.2146 36.8698 37.9064 36.5616C37.5983 36.2535 37.2056 36.0436 36.7781 35.9585C36.3507 35.8735 35.9076 35.9172 35.5049 36.0839C35.1022 36.2507 34.7581 36.5332 34.5159 36.8956C34.2738 37.258 34.1445 37.684 34.1445 38.1199C34.1452 38.7041 34.3776 39.2643 34.7907 39.6774C35.2038 40.0905 35.764 40.3229 36.3482 40.3236ZM36.3482 37.0179C36.5662 37.0179 36.7793 37.0825 36.9606 37.2036C37.1418 37.3248 37.2831 37.4969 37.3665 37.6983C37.4499 37.8998 37.4717 38.1214 37.4291 38.3352C37.3865 38.549 37.2815 38.7454 37.1273 38.8995C36.9731 39.0536 36.7767 39.1585 36.5629 39.201C36.3491 39.2434 36.1274 39.2215 35.9261 39.138C35.7247 39.0545 35.5526 38.9132 35.4316 38.7319C35.3105 38.5506 35.246 38.3374 35.2461 38.1194C35.2466 37.8273 35.3628 37.5473 35.5694 37.3408C35.776 37.1343 36.0561 37.0182 36.3482 37.0179Z" fill="#5FBE3F"/>
<path d="M41.5767 40.3236C42.0126 40.3236 42.4386 40.1943 42.801 39.9522C43.1634 39.71 43.4459 39.3659 43.6127 38.9632C43.7794 38.5605 43.8231 38.1174 43.7381 37.69C43.653 37.2625 43.4431 36.8698 43.135 36.5616C42.8268 36.2535 42.4341 36.0436 42.0066 35.9585C41.5792 35.8735 41.1361 35.9172 40.7334 36.0839C40.3307 36.2507 39.9866 36.5332 39.7444 36.8956C39.5023 37.258 39.373 37.684 39.373 38.1199C39.3737 38.7041 39.6061 39.2643 40.0192 39.6774C40.4323 40.0905 40.9925 40.3229 41.5767 40.3236ZM41.5767 37.0179C41.7947 37.0179 42.0078 37.0825 42.1891 37.2036C42.3703 37.3248 42.5116 37.4969 42.595 37.6983C42.6784 37.8998 42.7002 38.1214 42.6576 38.3352C42.615 38.549 42.51 38.7454 42.3558 38.8995C42.2016 39.0536 42.0052 39.1585 41.7914 39.201C41.5776 39.2434 41.356 39.2215 41.1546 39.138C40.9532 39.0545 40.7811 38.9132 40.6601 38.7319C40.539 38.5506 40.4745 38.3374 40.4746 38.1194C40.475 37.8273 40.5913 37.5473 40.7979 37.3408C41.0045 37.1343 41.2846 37.0181 41.5767 37.0179Z" fill="#5FBE3F"/>
<path d="M31.1197 35.4608C31.5555 35.4608 31.9816 35.3316 32.344 35.0895C32.7064 34.8473 32.9888 34.5031 33.1556 34.1005C33.3224 33.6978 33.3661 33.2547 33.281 32.8272C33.196 32.3998 32.9861 32.0071 32.6779 31.6989C32.3697 31.3907 31.9771 31.1809 31.5496 31.0958C31.1221 31.0108 30.6791 31.0544 30.2764 31.2212C29.8737 31.388 29.5295 31.6705 29.2874 32.0329C29.0453 32.3953 28.916 32.8213 28.916 33.2572C28.9167 33.8414 29.1491 34.4015 29.5622 34.8147C29.9753 35.2278 30.5354 35.4602 31.1197 35.4608ZM31.1197 32.155C31.3377 32.155 31.5508 32.2197 31.732 32.3408C31.9132 32.4619 32.0545 32.634 32.1379 32.8354C32.2213 33.0368 32.2432 33.2584 32.2006 33.4722C32.1581 33.686 32.0531 33.8823 31.899 34.0365C31.7449 34.1906 31.5485 34.2956 31.3347 34.3381C31.1209 34.3806 30.8993 34.3588 30.6979 34.2754C30.4965 34.192 30.3244 34.0507 30.2033 33.8695C30.0822 33.6882 30.0176 33.4751 30.0176 33.2572C30.0179 32.965 30.1341 32.6848 30.3408 32.4782C30.5474 32.2716 30.8275 32.1554 31.1197 32.155Z" fill="#5FBE3F"/>
<path d="M36.3482 35.4608C36.7841 35.4608 37.2101 35.3316 37.5725 35.0895C37.9349 34.8473 38.2174 34.5031 38.3841 34.1005C38.5509 33.6978 38.5946 33.2547 38.5095 32.8272C38.4245 32.3998 38.2146 32.0071 37.9064 31.6989C37.5983 31.3907 37.2056 31.1809 36.7781 31.0958C36.3507 31.0108 35.9076 31.0544 35.5049 31.2212C35.1022 31.388 34.7581 31.6705 34.5159 32.0329C34.2738 32.3953 34.1445 32.8213 34.1445 33.2572C34.1452 33.8414 34.3776 34.4015 34.7907 34.8147C35.2038 35.2278 35.764 35.4602 36.3482 35.4608ZM36.3482 32.155C36.5662 32.155 36.7793 32.2197 36.9605 32.3408C37.1418 32.4619 37.283 32.634 37.3664 32.8354C37.4498 33.0368 37.4717 33.2584 37.4291 33.4722C37.3866 33.686 37.2817 33.8823 37.1275 34.0365C36.9734 34.1906 36.777 34.2956 36.5632 34.3381C36.3494 34.3806 36.1278 34.3588 35.9264 34.2754C35.7251 34.192 35.5529 34.0507 35.4318 33.8695C35.3107 33.6882 35.2461 33.4751 35.2461 33.2572C35.2464 32.965 35.3627 32.6848 35.5693 32.4782C35.7759 32.2716 36.056 32.1554 36.3482 32.155Z" fill="#5FBE3F"/>
<path d="M41.5767 35.4608C42.0126 35.4608 42.4386 35.3316 42.801 35.0895C43.1634 34.8473 43.4459 34.5031 43.6127 34.1005C43.7794 33.6978 43.8231 33.2547 43.7381 32.8272C43.653 32.3998 43.4431 32.0071 43.135 31.6989C42.8268 31.3907 42.4341 31.1809 42.0066 31.0958C41.5792 31.0108 41.1361 31.0544 40.7334 31.2212C40.3307 31.388 39.9866 31.6705 39.7444 32.0329C39.5023 32.3953 39.373 32.8213 39.373 33.2572C39.3737 33.8414 39.6061 34.4015 40.0192 34.8147C40.4323 35.2278 40.9925 35.4602 41.5767 35.4608ZM41.5767 32.155C41.7947 32.155 42.0078 32.2197 42.189 32.3408C42.3703 32.4619 42.5115 32.634 42.5949 32.8354C42.6784 33.0368 42.7002 33.2584 42.6577 33.4722C42.6151 33.686 42.5102 33.8823 42.356 34.0365C42.2019 34.1906 42.0055 34.2956 41.7917 34.3381C41.5779 34.3806 41.3563 34.3588 41.155 34.2754C40.9536 34.192 40.7815 34.0507 40.6603 33.8695C40.5392 33.6882 40.4746 33.4751 40.4746 33.2572C40.4749 32.965 40.5911 32.6848 40.7978 32.4782C41.0044 32.2716 41.2845 32.1554 41.5767 32.155Z" fill="#5FBE3F"/>
<path d="M20.8838 29.2689H15.1465C15.0004 29.2689 14.8603 29.3269 14.757 29.4302C14.6537 29.5335 14.5957 29.6736 14.5957 29.8197C14.5957 29.9657 14.6537 30.1058 14.757 30.2091C14.8603 30.3124 15.0004 30.3705 15.1465 30.3705H20.8838C21.0299 30.3705 21.17 30.3124 21.2733 30.2091C21.3765 30.1058 21.4346 29.9657 21.4346 29.8197C21.4346 29.6736 21.3765 29.5335 21.2733 29.4302C21.17 29.3269 21.0299 29.2689 20.8838 29.2689Z" fill="#BBB8F8"/>
<path d="M12.5234 30.3705H13.0834C13.2295 30.3705 13.3696 30.3124 13.4729 30.2091C13.5762 30.1058 13.6342 29.9657 13.6342 29.8197C13.6342 29.6736 13.5762 29.5335 13.4729 29.4302C13.3696 29.3269 13.2295 29.2689 13.0834 29.2689H12.5234C12.3774 29.2689 12.2373 29.3269 12.134 29.4302C12.0307 29.5335 11.9727 29.6736 11.9727 29.8197C11.9727 29.9657 12.0307 30.1058 12.134 30.2091C12.2373 30.3124 12.3774 30.3705 12.5234 30.3705Z" fill="#5FBE3F"/>
<path d="M20.0664 33.9505H17.0703C16.9242 33.9505 16.7841 34.0086 16.6809 34.1119C16.5776 34.2151 16.5195 34.3552 16.5195 34.5013C16.5195 34.6474 16.5776 34.7875 16.6809 34.8908C16.7841 34.9941 16.9242 35.0521 17.0703 35.0521H20.0664C20.2125 35.0521 20.3525 34.9941 20.4558 34.8908C20.5591 34.7875 20.6172 34.6474 20.6172 34.5013C20.6172 34.3552 20.5591 34.2151 20.4558 34.1119C20.3525 34.0086 20.2125 33.9505 20.0664 33.9505Z" fill="#5FBE3F"/>
<path d="M14.9176 33.9505H12.5234C12.3774 33.9505 12.2373 34.0086 12.134 34.1119C12.0307 34.2151 11.9727 34.3552 11.9727 34.5013C11.9727 34.6474 12.0307 34.7875 12.134 34.8908C12.2373 34.9941 12.3774 35.0521 12.5234 35.0521H14.9176C15.0637 35.0521 15.2038 34.9941 15.3071 34.8908C15.4103 34.7875 15.4684 34.6474 15.4684 34.5013C15.4684 34.3552 15.4103 34.2151 15.3071 34.1119C15.2038 34.0086 15.0637 33.9505 14.9176 33.9505Z" fill="#5FBE3F"/>
<path d="M10.3223 5.2003C10.1762 5.2003 10.0361 5.25833 9.9328 5.36162C9.82951 5.46491 9.77148 5.60501 9.77148 5.75108V5.97259C9.77148 6.11867 9.82951 6.25876 9.9328 6.36205C10.0361 6.46534 10.1762 6.52337 10.3223 6.52337C10.4683 6.52337 10.6084 6.46534 10.7117 6.36205C10.815 6.25876 10.873 6.11867 10.873 5.97259V5.75108C10.873 5.60501 10.815 5.46491 10.7117 5.36162C10.6084 5.25833 10.4683 5.2003 10.3223 5.2003Z" fill="#5FBE3F"/>
<path d="M10.3223 7.57262C10.1762 7.57262 10.0361 7.63065 9.9328 7.73394C9.82951 7.83724 9.77148 7.97733 9.77148 8.12341V15.4192C9.77148 15.5653 9.82951 15.7054 9.9328 15.8087C10.0361 15.912 10.1762 15.97 10.3223 15.97C10.4683 15.97 10.6084 15.912 10.7117 15.8087C10.815 15.7054 10.873 15.5653 10.873 15.4192V8.12341C10.873 7.97733 10.815 7.83724 10.7117 7.73394C10.6084 7.63065 10.4683 7.57262 10.3223 7.57262Z" fill="#5FBE3F"/>
<path d="M21.6683 6.85704C20.0609 6.85704 18.4896 7.3337 17.153 8.22674C15.8165 9.11979 14.7748 10.3891 14.1597 11.8742C13.5445 13.3593 13.3836 14.9934 13.6972 16.5699C14.0108 18.1465 14.7848 19.5946 15.9215 20.7313C17.0581 21.8679 18.5062 22.6419 20.0828 22.9555C21.6593 23.2691 23.2935 23.1082 24.7785 22.493C26.2636 21.8779 27.5329 20.8362 28.426 19.4997C29.319 18.1631 29.7957 16.5918 29.7957 14.9844C29.7932 12.8296 28.9362 10.7638 27.4126 9.24016C25.8889 7.71652 23.8231 6.85947 21.6683 6.85704ZM28.6816 14.5814H22.8502L27.007 10.4246C28.0061 11.589 28.5945 13.0496 28.6816 14.5814ZM21.6683 7.9586C23.3411 7.95757 24.9589 8.55614 26.2281 9.64574L21.671 14.2028L18.0847 8.94505C19.1682 8.29845 20.4066 7.95756 21.6683 7.9586ZM21.6683 22.01C20.2232 22.0108 18.8129 21.5656 17.6301 20.7352C16.4473 19.9049 15.5494 18.7298 15.0591 17.3704C14.5687 16.0109 14.5097 14.5333 14.8901 13.139C15.2705 11.7448 16.0718 10.5019 17.1847 9.57992L21.1831 15.4425C21.2336 15.5166 21.3015 15.5773 21.3808 15.6192C21.4601 15.661 21.5485 15.6829 21.6381 15.6829H28.6592C28.4839 17.4159 27.6719 19.0221 26.3805 20.1909C25.0891 21.3597 23.4101 22.0079 21.6683 22.01Z" fill="#5FBE3F"/>
<path d="M43.7004 21.8333H36.3008V9.96759C36.3036 9.56515 36.1478 9.1778 35.8671 8.88934L28.9804 1.82842C28.8372 1.68155 28.6661 1.56471 28.4771 1.48473C28.2882 1.40476 28.0852 1.36325 27.88 1.36264H8.61595C8.41534 1.36383 8.21697 1.40484 8.03233 1.48327C7.84769 1.5617 7.68045 1.676 7.54031 1.81954C7.40018 1.96309 7.28992 2.13302 7.21595 2.31949C7.14198 2.50596 7.10575 2.70526 7.10938 2.90584V4.39194H5.64411C5.44104 4.38774 5.23916 4.4238 5.05009 4.49802C4.86103 4.57225 4.68853 4.68317 4.54255 4.82439C4.39791 4.96279 4.28246 5.12877 4.20303 5.31253C4.1236 5.49629 4.08179 5.6941 4.08008 5.89429V6.77866H2.96934C2.76706 6.77482 2.56604 6.81126 2.37798 6.88585C2.18992 6.96044 2.01858 7.07169 1.87392 7.21313C1.73013 7.35223 1.61569 7.51875 1.53737 7.70285C1.45906 7.88695 1.41845 8.08489 1.41797 8.28495V44.8731C1.41945 45.2852 1.58319 45.6802 1.87375 45.9725C2.16431 46.2648 2.5583 46.431 2.97044 46.4349H26.6613C26.9228 46.7511 27.251 47.0056 27.6223 47.1802C27.9937 47.3547 28.399 47.445 28.8093 47.4447H43.7004C44.4403 47.4446 45.1499 47.1507 45.6731 46.6275C46.1963 46.1043 46.4902 45.3948 46.4902 44.6549V24.6231C46.4902 23.8832 46.1963 23.1737 45.6731 22.6505C45.1499 22.1273 44.4403 21.8334 43.7004 21.8333ZM28.6816 3.09843L34.4734 9.07358H31.47C31.1021 9.07067 30.7385 8.99504 30.4 8.85105C30.0615 8.70705 29.7548 8.49754 29.4976 8.23455C28.9726 7.704 28.6792 6.98704 28.6816 6.24063V3.09843ZM5.18164 5.89364C5.18379 5.83805 5.19738 5.7835 5.22156 5.7334C5.24574 5.6833 5.27999 5.63873 5.32218 5.60246C5.41124 5.52497 5.52732 5.4858 5.64512 5.4935H7.10938V39.5935C7.10595 39.7928 7.14254 39.9909 7.21697 40.1759C7.29141 40.3609 7.40218 40.5291 7.54274 40.6705C7.6833 40.812 7.85079 40.9238 8.03532 40.9994C8.21984 41.075 8.41765 41.1129 8.61705 41.1107H26.0195V42.8548H5.64549C5.52303 42.8486 5.4074 42.7965 5.32149 42.709C5.23558 42.6216 5.18567 42.505 5.18164 42.3824V5.89364ZM2.97071 45.3333C2.85107 45.3301 2.73739 45.2804 2.65383 45.1947C2.56905 45.1089 2.52091 44.9935 2.51953 44.8728V8.28412C2.52047 8.22865 2.53287 8.17397 2.55595 8.12351C2.57903 8.07305 2.61229 8.02792 2.65365 7.99093C2.69647 7.95238 2.74653 7.92274 2.80092 7.90374C2.8553 7.88473 2.91293 7.87674 2.97044 7.88022H4.08008V42.3826C4.08445 42.7972 4.25047 43.1936 4.54279 43.4875C4.83511 43.7815 5.23062 43.9497 5.64512 43.9564H26.0195V44.6549C26.0195 44.8836 26.0475 45.1115 26.1031 45.3333H2.97071ZM26.0195 24.6231V29.5217C25.9697 29.4442 25.9013 29.3804 25.8204 29.3362C25.7396 29.2921 25.6489 29.2689 25.5568 29.2689H23.4958C23.3497 29.2689 23.2096 29.3269 23.1063 29.4302C23.003 29.5335 22.945 29.6736 22.945 29.8197C22.945 29.9657 23.003 30.1058 23.1063 30.2091C23.2096 30.3124 23.3497 30.3705 23.4958 30.3705H25.5568C25.6489 30.3704 25.7396 30.3473 25.8204 30.3031C25.9013 30.2589 25.9697 30.1952 26.0195 30.1176V33.9505H22.1839C22.0378 33.9505 21.8977 34.0086 21.7944 34.1119C21.6911 34.2151 21.6331 34.3552 21.6331 34.5013C21.6331 34.6474 21.6911 34.7875 21.7944 34.8908C21.8977 34.9941 22.0378 35.0521 22.1839 35.0521H26.0195V40.0091H8.61732C8.56282 40.0115 8.50842 40.0024 8.45767 39.9824C8.40693 39.9623 8.36098 39.9318 8.32284 39.8928C8.28432 39.8535 8.25447 39.8065 8.2352 39.7549C8.21593 39.7033 8.20766 39.6483 8.21094 39.5933V2.90483C8.20727 2.84891 8.21501 2.79283 8.23368 2.73999C8.25235 2.68716 8.28156 2.63866 8.31953 2.59746C8.35751 2.55625 8.40347 2.52319 8.45461 2.50028C8.50575 2.47738 8.56102 2.4651 8.61705 2.4642H27.5801V6.24036C27.578 7.27672 27.9856 8.2719 28.7142 9.00896C29.4427 9.74603 30.4331 10.1652 31.4694 10.1751H35.1992V21.8333H28.8093C28.0694 21.8334 27.3599 22.1273 26.8367 22.6505C26.3135 23.1737 26.0196 23.8832 26.0195 24.6231ZM45.4805 44.6549C45.4775 45.1036 45.2971 45.5329 44.9788 45.8492C44.6604 46.1655 44.23 46.343 43.7812 46.3431H28.8537C27.9228 46.3431 27.1211 45.5858 27.1211 44.6549V30.3705H45.4805V44.6549ZM45.4805 29.2689H27.1211V24.6251C27.1211 23.6942 27.9228 22.9349 28.8537 22.9349H43.7812C44.2302 22.9354 44.6607 23.1134 44.979 23.43C45.2973 23.7466 45.4775 24.1761 45.4805 24.6251V29.2689Z" fill="#5FBE3F"/>
</g>
<defs>
<clipPath id="clip0">
<rect width="47" height="47" fill="white" transform="translate(0.5 0.903656)"/>
</clipPath>
</defs>
</svg>

<svg xmlns="http://www.w3.org/2000/svg" fill="none" viewBox="0 0 48 48"><g clip-path="url(#clip0)"><path fill="#5FBE3F" d="M43.46 24.128H29.233a.55.55 0 0 0-.55.551v3.213a.55.55 0 0 0 .55.55h14.229a.55.55 0 0 0 .55-.55v-3.213a.55.55 0 0 0-.55-.55zm-.642 3.213H29.783V25.23h13.035v2.111zM31.12 45.187a2.204 2.204 0 1 0 0-4.409 2.204 2.204 0 0 0 0 4.409zm0-3.306a1.102 1.102 0 1 1 0 2.205 1.102 1.102 0 0 1 0-2.205zM36.348 45.187a2.204 2.204 0 1 0 0-4.408 2.204 2.204 0 0 0 0 4.407zm0-3.306a1.102 1.102 0 1 1 0 2.204 1.102 1.102 0 0 1 0-2.204zM41.577 45.187a2.204 2.204 0 1 0 0-4.408 2.204 2.204 0 0 0 0 4.407zm0-3.306a1.102 1.102 0 1 1 0 2.204 1.102 1.102 0 0 1 0-2.204zM31.12 40.324a2.204 2.204 0 1 0 0-4.409 2.204 2.204 0 0 0 0 4.409zm0-3.306a1.102 1.102 0 1 1 0 2.205 1.102 1.102 0 0 1 0-2.205zM36.348 40.324a2.204 2.204 0 1 0 0-4.408 2.204 2.204 0 0 0 0 4.408zm0-3.306a1.102 1.102 0 1 1 0 2.205 1.102 1.102 0 0 1 0-2.205zM41.577 40.324a2.204 2.204 0 1 0 0-4.408 2.204 2.204 0 0 0 0 4.408zm0-3.306a1.102 1.102 0 1 1 0 2.205 1.102 1.102 0 0 1 0-2.205zM31.12 35.46a2.204 2.204 0 1 0 0-4.407 2.204 2.204 0 0 0 0 4.408zm0-3.305a1.102 1.102 0 1 1 0 2.204 1.102 1.102 0 0 1 0-2.204zM36.348 35.46a2.204 2.204 0 1 0 0-4.407 2.204 2.204 0 0 0 0 4.408zm0-3.305a1.102 1.102 0 1 1 0 2.204 1.102 1.102 0 0 1 0-2.204zM41.577 35.46a2.204 2.204 0 1 0 0-4.407 2.204 2.204 0 0 0 0 4.408zm0-3.305a1.102 1.102 0 1 1 0 2.204 1.102 1.102 0 0 1 0-2.204z"/><path fill="#BBB8F8" d="M20.884 29.269h-5.738a.55.55 0 1 0 0 1.102h5.738a.55.55 0 0 0 0-1.102z"/><path fill="#5FBE3F" d="M12.523 30.37h.56a.55.55 0 0 0 0-1.101h-.56a.55.55 0 0 0 0 1.102zM20.066 33.95H17.07a.55.55 0 0 0 0 1.102h2.996a.55.55 0 1 0 0-1.102zM14.918 33.95h-2.395a.55.55 0 0 0 0 1.102h2.395a.55.55 0 1 0 0-1.102zM10.322 5.2a.55.55 0 0 0-.55.551v.222a.55.55 0 1 0 1.101 0V5.75a.55.55 0 0 0-.55-.55zM10.322 7.573a.55.55 0 0 0-.55.55v7.296a.55.55 0 1 0 1.101 0V8.123a.55.55 0 0 0-.55-.55zM21.668 6.857a8.128 8.128 0 1 0 8.128 8.127 8.137 8.137 0 0 0-8.128-8.127zm7.014 7.724H22.85l4.157-4.156a6.993 6.993 0 0 1 1.675 4.156zM21.668 7.96a6.994 6.994 0 0 1 4.56 1.687l-4.557 4.557-3.586-5.258a6.982 6.982 0 0 1 3.583-.986zm0 14.051a7.021 7.021 0 0 1-4.483-12.43l3.998 5.863a.55.55 0 0 0 .455.24h7.021a7.035 7.035 0 0 1-6.99 6.327z"/><path fill="#5FBE3F" d="M43.7 21.833h-7.4V9.968a1.53 1.53 0 0 0-.433-1.079L28.98 1.83a1.542 1.542 0 0 0-1.1-.466H8.616a1.516 1.516 0 0 0-1.507 1.543v1.486H5.644a1.539 1.539 0 0 0-1.441.92c-.08.184-.121.382-.123.582v.885H2.97a1.525 1.525 0 0 0-1.433.924 1.496 1.496 0 0 0-.119.582v36.588a1.567 1.567 0 0 0 1.552 1.562h23.691a2.785 2.785 0 0 0 2.148 1.01H43.7a2.79 2.79 0 0 0 2.79-2.79V24.623a2.79 2.79 0 0 0-2.79-2.79zM28.682 3.098l5.791 5.976H31.47a2.79 2.79 0 0 1-1.972-.84 2.822 2.822 0 0 1-.816-1.993V3.098zm-23.5 2.796a.405.405 0 0 1 .14-.292.448.448 0 0 1 .323-.109H7.11v34.1a1.492 1.492 0 0 0 1.508 1.518H26.02v1.744H5.645a.489.489 0 0 1-.463-.473V5.894zM2.97 45.334a.465.465 0 0 1-.451-.46V8.283a.403.403 0 0 1 .134-.293.434.434 0 0 1 .316-.11h1.11v34.502a1.59 1.59 0 0 0 1.565 1.573H26.02v.699c0 .229.027.456.083.678H2.971zm23.049-20.71v4.898a.55.55 0 0 0-.463-.253h-2.061a.55.55 0 1 0 0 1.102h2.06a.55.55 0 0 0 .463-.253v3.832h-3.835a.55.55 0 0 0 0 1.102h3.835v4.957H8.617a.389.389 0 0 1-.406-.416V2.905a.414.414 0 0 1 .406-.44H27.58V6.24a3.927 3.927 0 0 0 3.89 3.935h3.73v11.658h-6.39a2.79 2.79 0 0 0-2.79 2.79zm19.46 20.03a1.7 1.7 0 0 1-1.699 1.69H28.854c-.931 0-1.733-.758-1.733-1.69V30.37h18.36v14.285zm0-15.385H27.121v-4.644c0-.93.802-1.69 1.733-1.69H43.78a1.701 1.701 0 0 1 1.7 1.69v4.644z"/></g><defs><clipPath id="clip0"><path fill="#fff" d="M0 0h47v47H0z" transform="translate(.5 .904)"/></clipPath></defs></svg>
